svgs/sharp-solid/unlock-keyhole.svg

<svg xmlns="http://www.w3.org/2000/svg" viewBox="0 0 448 512"><!--! Font Awesome Pro 6.6.0 by @fontawesome - https://fontawesome.com License - https://fontawesome.com/license (Commercial License) Copyright 2024 Fonticons, Inc. --><path d="M144 144c0-44.2 35.8-80 80-80c38.7 0 71 27.5 78.4 64l64.7 0C359.2 56 298.1 0 224 0C144.5 0 80 64.5 80 144l0 48L0 192 0 512l448 0 0-320-304 0 0-48zM256 384l-64 0-32 0 0-64 32 0 64 0 32 0 0 64-32 0z"/></svg>

<svg xmlns="http://www.w3.org/2000/svg" viewBox="0 0 448 512"><!--! Font Awesome Pro 6.4.2 by @fontawesome - https://fontawesome.com License - https://fontawesome.com/license (Commercial License) Copyright 2023 Fonticons, Inc. --><path d="M144 144c0-44.2 35.8-80 80-80c38.7 0 71 27.5 78.4 64h64.7C359.2 56 298.1 0 224 0C144.5 0 80 64.5 80 144v48H0V512H448V192H144V144zM256 384H192 160V320h32 64 32v64H256z"/></svg>
